svg/Tango/categories/applications-development.svg

<?xml version="1.0" encoding="UTF-8" standalone="no"?>
<!-- Created with Inkscape (http://www.inkscape.org/) -->
<svg
   xmlns:dc="http://purl.org/dc/elements/1.1/"
   xmlns:cc="http://creativecommons.org/ns#"
   xmlns:rdf="http://www.w3.org/1999/02/22-rdf-syntax-ns#"
   xmlns:svg="http://www.w3.org/2000/svg"
   xmlns="http://www.w3.org/2000/svg"
   xmlns:xlink="http://www.w3.org/1999/xlink"
   xmlns:sodipodi="http://sodipodi.sourceforge.net/DTD/sodipodi-0.dtd"
   xmlns:inkscape="http://www.inkscape.org/namespaces/inkscape"
   width="48"
   height="48"
   id="svg2"
   sodipodi:version="0.32"
   inkscape:version="0.46"
   version="1.0"
   sodipodi:docbase="/home/tigert/cvs/freedesktop.org/tango-icon-theme/scalable/categories"
   sodipodi:docname="applications-development.svg"
   inkscape:output_extension="org.inkscape.output.svg.inkscape">
  <defs
     id="defs4">
    <inkscape:perspective
       sodipodi:type="inkscape:persp3d"
       inkscape:vp_x="0 : 24 : 1"
       inkscape:vp_y="0 : 1000 : 0"
       inkscape:vp_z="48 : 24 : 1"
       inkscape:persp3d-origin="24 : 16 : 1"
       id="perspective47" />
    <linearGradient
       inkscape:collect="always"
       id="linearGradient2807">
      <stop
         style="stop-color:#ffffff;stop-opacity:1;"
         offset="0"
         id="stop2809" />
      <stop
         style="stop-color:#ffffff;stop-opacity:0;"
         offset="1"
         id="stop2811" />
    </linearGradient>
    <linearGradient
       id="linearGradient18284">
      <stop
         style="stop-color:#000000;stop-opacity:1;"
         offset="0"
         id="stop18286" />
      <stop
         id="stop20913"
         offset="0.5"
         style="stop-color:#000000;stop-opacity:1;" />
      <stop
         id="stop19165"
         offset="1"
         style="stop-color:#000000;stop-opacity:0;" />
    </linearGradient>
    <linearGradient
       id="linearGradient11202">
      <stop
         style="stop-color:#c4a000;stop-opacity:1;"
         offset="0"
         id="stop11204" />
      <stop
         style="stop-color:#c4a000;stop-opacity:0;"
         offset="1"
         id="stop11206" />
    </linearGradient>
    <linearGradient
       id="linearGradient8543">
      <stop
         style="stop-color:#fffef5;stop-opacity:0.94117647;"
         offset="0"
         id="stop8545" />
      <stop
         style="stop-color:#fce94f;stop-opacity:0;"
         offset="1"
         id="stop8547" />
    </linearGradient>
    <linearGradient
       id="linearGradient5012">
      <stop
         style="stop-color:#fdf188;stop-opacity:1;"
         offset="0"
         id="stop5014" />
      <stop
         style="stop-color:#d3bc00;stop-opacity:1;"
         offset="1"
         id="stop5016" />
    </linearGradient>
    <radialGradient
       inkscape:collect="always"
       xlink:href="#linearGradient5012"
       id="radialGradient7666"
       gradientUnits="userSpaceOnUse"
       gradientTransform="matrix(0.136507,-2.396132e-18,-4.484926e-5,7.137743e-2,-23.39816,12.31028)"
       cx="336.73767"
       cy="-72.420044"
       fx="336.73767"
       fy="-72.420044"
       r="297.21338" />
    <radialGradient
       inkscape:collect="always"
       xlink:href="#linearGradient8543"
       id="radialGradient8549"
       cx="420.87839"
       cy="685.99139"
       fx="420.87839"
       fy="685.99139"
       r="235.88632"
       gradientTransform="matrix(0.163532,-1.065754e-2,1.078108e-2,0.165425,-46.18187,-65.65506)"
       gradientUnits="userSpaceOnUse" />
    <radialGradient
       inkscape:collect="always"
       xlink:href="#linearGradient8543"
       id="radialGradient9434"
       cx="500.97794"
       cy="286.46918"
       fx="500.97794"
       fy="286.46918"
       r="40.975471"
       gradientTransform="matrix(0.224796,1.017229e-2,-9.759474e-3,0.215674,-73.87964,-54.89804)"
       gradientUnits="userSpaceOnUse" />
    <radialGradient
       inkscape:collect="always"
       xlink:href="#linearGradient8543"
       id="radialGradient10317"
       cx="293.81989"
       cy="243.06874"
       fx="293.81989"
       fy="243.06874"
       r="48.782982"
       gradientTransform="matrix(0.272962,-7.1724e-2,5.616202e-2,0.213737,-78.54657,-24.30491)"
       gradientUnits="userSpaceOnUse" />
    <radialGradient
       inkscape:collect="always"
       xlink:href="#linearGradient11202"
       id="radialGradient11208"
       cx="424.99243"
       cy="270.67969"
       fx="424.99243"
       fy="270.67969"
       r="38.451698"
       gradientTransform="matrix(8.174351e-2,1.024998e-2,-4.335971e-2,0.345793,6.123413,-84.50421)"
       gradientUnits="userSpaceOnUse" />
    <radialGradient
       inkscape:collect="always"
       xlink:href="#linearGradient8543"
       id="radialGradient13895"
       cx="340.35886"
       cy="409.83737"
       fx="340.35886"
       fy="409.83737"
       r="103.26014"
       gradientTransform="matrix(0.105628,-4.514018e-2,6.692574e-2,0.156607,-46.01605,-24.35485)"
       gradientUnits="userSpaceOnUse" />
    <radialGradient
       inkscape:collect="always"
       xlink:href="#linearGradient18284"
       id="radialGradient18290"
       cx="29.898689"
       cy="45.673546"
       fx="29.898689"
       fy="45.673546"
       r="30.365856"
       gradientTransform="matrix(1,0,2.702168e-19,0.415385,-2.283104e-16,26.70146)"
       gradientUnits="userSpaceOnUse" />
    <radialGradient
       inkscape:collect="always"
       xlink:href="#linearGradient8543"
       id="radialGradient2798"
       gradientUnits="userSpaceOnUse"
       gradientTransform="matrix(0.101953,-4.272301e-2,9.621296e-2,0.229599,-48.67227,-64.24148)"
       cx="131.23691"
       cy="424.15677"
       fx="131.23691"
       fy="424.15677"
       r="35.934704" />
    <radialGradient
       inkscape:collect="always"
       xlink:href="#linearGradient2807"
       id="radialGradient2813"
       cx="15.491823"
       cy="10.943316"
       fx="15.491823"
       fy="10.943316"
       r="18.370251"
       gradientTransform="matrix(1.402663,1.176399e-16,-9.356816e-17,1.115648,-6.237984,5.33075e-2)"
       gradientUnits="userSpaceOnUse" />
  </defs>
  <sodipodi:namedview
     id="base"
     pagecolor="#ffffff"
     bordercolor="#666666"
     borderopacity="0.13333333"
     inkscape:pageopacity="0.0"
     inkscape:pageshadow="2"
     inkscape:zoom="11.313708"
     inkscape:cx="13.540158"
     inkscape:cy="28.304801"
     inkscape:document-units="px"
     inkscape:current-layer="layer1"
     inkscape:window-width="906"
     inkscape:window-height="987"
     inkscape:window-x="635"
     inkscape:window-y="114"
     inkscape:showpageshadow="false"
     stroke="#c4a000"
     showgrid="false" />
  <metadata
     id="metadata7">
    <rdf:RDF>
      <cc:Work
         rdf:about="">
        <dc:format>image/svg+xml</dc:format>
        <dc:type
           rdf:resource="http://purl.org/dc/dcmitype/StillImage" />
        <dc:contributor>
          <cc:Agent>
            <dc:title>Henrik Andersen</dc:title>
          </cc:Agent>
        </dc:contributor>
        <dc:title>Developer Tools</dc:title>
        <dc:subject>
          <rdf:Bag>
            <rdf:li>developer</rdf:li>
            <rdf:li>dev</rdf:li>
            <rdf:li>tool</rdf:li>
            <rdf:li>make</rdf:li>
            <rdf:li>compile</rdf:li>
            <rdf:li>build</rdf:li>
            <rdf:li>code</rdf:li>
            <rdf:li>hacker</rdf:li>
          </rdf:Bag>
        </dc:subject>
        <dc:creator>
          <cc:Agent>
            <dc:title>Jakub Steiner</dc:title>
          </cc:Agent>
        </dc:creator>
        <dc:source>http://jimmac.musichall.cz</dc:source>
        <cc:license
           rdf:resource="http://creativecommons.org/licenses/publicdomain/" />
      </cc:Work>
      <cc:License
         rdf:about="http://creativecommons.org/licenses/publicdomain/">
        <cc:permits
           rdf:resource="http://creativecommons.org/ns#Reproduction" />
        <cc:permits
           rdf:resource="http://creativecommons.org/ns#Distribution" />
        <cc:permits
           rdf:resource="http://creativecommons.org/ns#DerivativeWorks" />
      </cc:License>
    </rdf:RDF>
  </metadata>
  <g
     inkscape:label="Layer 1"
     id="layer1"
     inkscape:groupmode="layer">
    <path
       sodipodi:type="arc"
       style="opacity:1;fill:url(#radialGradient18290);fill-opacity:1;stroke:none;stroke-width:12.39700031;stroke-miterlimit:4;stroke-dasharray:none;stroke-opacity:1"
       id="path17409"
       sodipodi:cx="29.898689"
       sodipodi:cy="45.673546"
       sodipodi:rx="30.365856"
       sodipodi:ry="12.613509"
       d="M 60.264545 45.673546 A 30.365856 12.613509 0 1 1  -0.4671669,45.673546 A 30.365856 12.613509 0 1 1  60.264545 45.673546 z"
       transform="matrix(0.742527,0,-5.812964e-2,1.428611,4.500517,-36.68345)" />
    <path
       style="fill:url(#radialGradient7666);fill-opacity:1;stroke:#c4a000;stroke-width:1;stroke-miterlimit:4;stroke-opacity:1;stroke-dasharray:none"
       d="M 23.152758,1.1801876 C 20.380218,1.2190783 17.86582,1.8908769 15.634281,3.0196314 C 14.541531,5.1714614 10.9437,7.7293655 9.4689484,8.0015561 C 6.5691703,11.460832 4.6887193,15.805035 3.9754523,19.98162 C 3.9750148,19.984183 3.9758889,19.986781 3.9754523,19.989343 C 2.7890929,21.53906 2.2854415,23.385937 2.5981051,25.521903 C 3.7192795,33.181217 5.8802729,40.410195 10.783201,42.078178 C 17.93763,44.512124 32.65497,43.864025 35.912708,42.536436 C 43.051738,39.62715 43.684161,33.251338 44.80414,25.75618 C 45.109694,23.711348 44.659305,21.914978 43.573539,20.383238 C 43.564583,20.327636 43.555052,20.271764 43.54522,20.215896 C 42.763966,15.777007 40.697859,11.326849 37.602582,7.8466935 C 35.508773,7.62926 31.462964,4.270333 30.483158,2.6229925 C 28.330506,1.7020155 25.961342,1.1801876 23.407632,1.1801876 C 23.322311,1.1801876 23.237595,1.178998 23.152758,1.1801876 z "
       id="path3120"
       sodipodi:nodetypes="cccscsssscsccsc" />
    <path
       style="fill:url(#radialGradient8549);fill-opacity:1;fill-rule:evenodd;stroke:none;stroke-width:1px;stroke-linecap:butt;stroke-linejoin:miter;stroke-opacity:1;opacity:0.66666667"
       d="M 43.629688,22.792984 C 39.033494,39.233217 10.438199,40.802737 3.7832765,23.04227 C 3.7410682,39.366403 10.103414,44.083889 28.189955,43.247454 C 31.251932,43.106765 38.199775,43.290321 42.804439,34.110678 C 45.042804,22.600278 43.629688,22.792984 43.629688,22.792984 z "
       id="path7668"
       sodipodi:nodetypes="ccscc" />
    <path
       style="fill:url(#radialGradient9434);fill-opacity:1;fill-rule:evenodd;stroke:none;stroke-width:1px;stroke-linecap:butt;stroke-linejoin:miter;stroke-opacity:1"
       d="M 34.691565,7.6783057 L 37.192446,8.8037033 C 37.192446,8.8037033 35.882042,18.926343 30.52343,25.288675 C 32.295095,18.832841 34.712405,7.6783057 34.691565,7.6783057 z "
       id="path8553"
       sodipodi:nodetypes="cccc" />
    <path
       style="fill:url(#radialGradient10317);fill-opacity:1;fill-rule:evenodd;stroke:none;stroke-width:1px;stroke-linecap:butt;stroke-linejoin:miter;stroke-opacity:1"
       d="M 15.872437,4.1562328 C 17.372967,13.221927 22.374727,23.642261 21.874552,24.163278 C 17.289604,17.181654 15.372261,11.242061 13.871732,6.2403001 C 13.871732,6.1569366 15.872437,4.1770734 15.872437,4.1562328 z "
       id="path9436"
       sodipodi:nodetypes="cccc" />
    <path
       style="fill:url(#radialGradient11208);fill-opacity:1;fill-rule:evenodd;stroke:none;stroke-width:1px;stroke-linecap:butt;stroke-linejoin:miter;stroke-opacity:1"
       d="M 30.21082,3.8227818 C 26.126047,20.328594 25.959322,23.079563 25.959322,23.079563 C 25.959322,23.079563 32.294888,6.3236627 32.294888,5.9068495 C 32.294888,5.9068487 30.710997,4.4063209 30.21082,3.8227818 z "
       id="path10319"
       sodipodi:nodetypes="ccsc" />
    <flowRoot
       xml:space="preserve"
       id="flowRoot12974"><flowRegion
         id="flowRegion12976"><rect
           id="rect12978"
           width="40.055775"
           height="16.02231"
           x="86.787514"
           y="412.80496" /></flowRegion><flowPara
         id="flowPara12980" /></flowRoot>    <path
       style="fill:url(#radialGradient13895);fill-opacity:1;fill-rule:evenodd;stroke:none;stroke-width:1px;stroke-linecap:butt;stroke-linejoin:miter;stroke-opacity:1"
       d="M 16.18209,34.476182 L 16.137416,24.906437 L 30.631143,24.906437 L 32.273747,23.642895 L 15.342282,23.642895 L 15.386956,34.283476 L 16.18209,34.476182 z "
       id="path13014"
       sodipodi:nodetypes="ccccccc" />
    <path
       style="fill:#958401;fill-opacity:1;fill-rule:evenodd;stroke:none;stroke-width:1px;stroke-linecap:butt;stroke-linejoin:miter;stroke-opacity:1"
       d="M 31.043495,24.81709 L 31.125176,34.621701 L 31.81132,34.406959 L 31.823298,23.553549 L 31.043495,24.81709 z "
       id="path13897"
       sodipodi:nodetypes="ccccc" />
    <path
       style="fill:url(#radialGradient2798);fill-opacity:1;fill-rule:evenodd;stroke:none;stroke-width:1px;stroke-linecap:butt;stroke-linejoin:miter;stroke-opacity:1"
       d="M 4.2551267,24.106065 C 4.2551267,24.106065 6.571777,32.221754 14.476068,32.872102 C 15.581676,35.36252 13.341098,36.996703 13.341098,36.996703 L 9.7315781,36.745641 C 9.7315781,36.745641 3.4928036,28.752699 3.2433694,26.844759 C 2.9939369,24.936822 3.4066529,23.436966 3.4066529,23.436966 L 4.2551267,24.106065 z "
       id="path16526"
       sodipodi:nodetypes="ccccscc" />
    <path
       sodipodi:nodetypes="cccscsssscsccsc"
       id="path2703"
       d="M 23.184204,2.3889904 C 20.570275,2.4256563 18.199721,3.0590226 16.095844,4.1232033 C 15.065608,6.1519314 11.673602,8.563503 10.283218,8.8201221 C 7.5493302,12.0815 5.776456,16.17718 5.1039936,20.11483 C 5.1035812,20.117247 5.1044052,20.119696 5.1039936,20.122112 C 3.9855035,21.583172 3.2455,23.368587 3.5402767,25.382359 C 4.597311,32.603499 6.4678792,39.092036 10.868256,41.021813 C 16.791397,43.619395 32.407978,42.807748 35.479348,41.556108 C 42.209968,38.813256 42.541047,32.625414 43.596954,25.559039 C 43.885028,23.631188 43.460404,21.937585 42.436753,20.493473 C 42.428309,20.441052 42.419324,20.388376 42.410054,20.335704 C 41.673494,16.150755 39.725585,11.955182 36.807382,8.6741189 C 34.833356,8.4691243 31.019,5.3023548 30.095246,3.7492553 C 28.065743,2.8809656 25.832115,2.3889904 23.424497,2.3889904 C 23.344057,2.3889904 23.264188,2.3878689 23.184204,2.3889904 z "
       style="fill:none;fill-opacity:1;stroke:#ffffff;stroke-width:0.99999976;stroke-miterlimit:4;stroke-dasharray:none;stroke-opacity:1;opacity:0.74444444" />
    <path
       style="fill:url(#radialGradient2813);fill-opacity:1.0;stroke:none;stroke-width:1;stroke-miterlimit:4;stroke-dasharray:none;stroke-opacity:1;opacity:0.59444444"
       d="M 22.59375,2.78125 C 20.264193,2.8978182 18.152779,3.5062884 16.25,4.46875 C 15.239275,6.4590559 11.895302,8.841991 10.53125,9.09375 C 7.8491405,12.293361 6.1284766,16.293174 5.46875,20.15625 C 5.4683454,20.15862 5.4691538,20.18513 5.46875,20.1875 C 4.3714431,21.62089 4.0107233,23.778648 4.0107233,23.778648 C 8.6959903,27.38371 11.652335,23.99254 18.329596,21.761428 C 30.928876,23.684569 37.077934,20.765483 40.84375,16.09375 C 40.850609,16.085241 40.840294,16.072869 40.84375,16.0625 C 39.852567,13.479666 38.411479,11.016387 36.5625,8.9375 C 34.62586,8.7363873 30.875008,5.6486852 29.96875,4.125 C 27.977684,3.2731547 25.79952,2.78125 23.4375,2.78125 C 23.358584,2.7812501 23.265969,2.7801497 23.1875,2.78125 C 22.987154,2.7840603 22.79117,2.7713713 22.59375,2.78125 z "
       id="path2800"
       sodipodi:nodetypes="cccssccscccssc" />
  </g>
</svg>

<svg xmlns="http://www.w3.org/2000/svg" xmlns:xlink="http://www.w3.org/1999/xlink" viewBox="0 0 48 48"><defs><linearGradient id="0"><stop stop-color="#fffef5" stop-opacity=".941"/><stop offset="1" stop-color="#fce94f" stop-opacity="0"/></linearGradient><radialGradient xlink:href="#0" id="6" cx="340.36" cy="409.84" r="103.26" gradientTransform="matrix(.10563-.04514.06693.15661-46.02-24.355)" gradientUnits="userSpaceOnUse"/><radialGradient id="7" cx="29.899" cy="45.674" r="30.366" gradientTransform="matrix(1 0 0 .41539 0 26.701)" gradientUnits="userSpaceOnUse"><stop/><stop offset=".5"/><stop offset="1" stop-opacity="0"/></radialGradient><radialGradient xlink:href="#0" id="8" gradientUnits="userSpaceOnUse" gradientTransform="matrix(.10195-.04272.09621.2296-48.672-64.24)" cx="131.24" cy="424.16" r="35.935"/><radialGradient id="9" cx="15.492" cy="10.943" r="18.37" gradientTransform="matrix(1.40266 0 0 1.11565-6.238.053)" gradientUnits="userSpaceOnUse"><stop stop-color="#fff"/><stop offset="1" stop-color="#fff" stop-opacity="0"/></radialGradient><radialGradient id="5" cx="424.99" cy="270.68" r="38.452" gradientTransform="matrix(.08174.01025-.04336.34579 6.123-84.5)" gradientUnits="userSpaceOnUse"><stop stop-color="#c4a000"/><stop offset="1" stop-color="#c4a000" stop-opacity="0"/></radialGradient><radialGradient xlink:href="#0" id="4" cx="293.82" cy="243.07" r="48.783" gradientTransform="matrix(.27296-.07172.05616.21374-78.55-24.305)" gradientUnits="userSpaceOnUse"/><radialGradient id="1" gradientUnits="userSpaceOnUse" gradientTransform="matrix(.13651 0-.00004.07138-23.398 12.31)" cx="336.74" cy="-72.42" r="297.21"><stop stop-color="#fdf188"/><stop offset="1" stop-color="#d3bc00"/></radialGradient><radialGradient xlink:href="#0" id="3" cx="500.98" cy="286.47" r="40.975" gradientTransform="matrix(.2248.01017-.00976.21567-73.88-54.898)" gradientUnits="userSpaceOnUse"/><radialGradient xlink:href="#0" id="2" cx="420.88" cy="685.99" r="235.89" gradientTransform="matrix(.16353-.01066.01078.16542-46.18-65.66)" gradientUnits="userSpaceOnUse"/></defs><path d="M60.26454 45.673546A30.365856 12.613509 0 1 1 -.467167 45.673546 30.365856 12.613509 0 1 1 60.26454 45.673546" transform="matrix(.74253 0-.05813 1.42861 4.501-36.683)" fill="url(#7)"/><path d="m23.15 1.18c-2.773.039-5.287.711-7.518 1.839-1.093 2.152-4.691 4.71-6.165 4.982-2.9 3.459-4.78 7.803-5.493 11.98 0 .003 0 .005 0 .008-1.186 1.55-1.69 3.397-1.377 5.533 1.121 7.659 3.282 14.888 8.185 16.556 7.154 2.434 21.872 1.786 25.13.458 7.139-2.909 7.771-9.285 8.891-16.78.306-2.045-.145-3.841-1.231-5.373-.009-.056-.018-.111-.028-.167-.781-4.439-2.847-8.889-5.943-12.369-2.094-.217-6.14-3.576-7.119-5.224-2.153-.921-4.522-1.443-7.08-1.443-.085 0-.17-.0001-.255 0z" fill="url(#1)" stroke="#c4a000"/><g fill-rule="evenodd"><path d="m43.63 22.793c-4.596 16.44-33.19 18.01-39.846.249-.042 16.324 6.32 21.04 24.407 20.21 3.062-.141 10.01.043 14.614-9.137 2.238-11.51.825-11.318.825-11.318" opacity=".667" fill="url(#2)"/><path d="m34.692 7.678l2.501 1.125c0 0-1.31 10.123-6.669 16.485 1.772-6.456 4.189-17.61 4.168-17.61" fill="url(#3)"/><path d="m15.872 4.156c1.501 9.07 6.502 19.486 6 20.01-4.585-6.982-6.502-12.921-8-17.923 0-.083 2-2.063 2-2.084" fill="url(#4)"/><path d="m30.21 3.823c-4.085 16.506-4.251 19.257-4.251 19.257 0 0 6.336-16.756 6.336-17.17 0 0-1.584-1.501-2.084-2.084" fill="url(#5)"/></g><flowRoot><flowRegion><path d="m86.79 412.81h40.06v16.02h-40.06z"/></flowRegion><flowPara/></flowRoot><g fill-rule="evenodd"><path d="m16.182 34.476l-.045-9.57h14.494l1.643-1.264h-16.931l.045 10.641.795.193" fill="url(#6)"/><path d="m31.04 24.817l.082 9.805.686-.215.012-10.853-.78 1.264" fill="#958401"/><path d="m4.255 24.11c0 0 2.317 8.116 10.221 8.766 1.106 2.49-1.135 4.125-1.135 4.125l-3.61-.251c0 0-6.239-7.993-6.488-9.901-.249-1.908.163-3.408.163-3.408l.848.669" fill="url(#8)"/></g><path d="m23.18 2.389c-2.614.037-4.984.67-7.088 1.734-1.03 2.029-4.422 4.44-5.813 4.697-2.734 3.261-4.507 7.357-5.179 11.295 0 .002 0 .005 0 .007-1.118 1.461-1.858 3.246-1.564 5.26 1.057 7.221 2.928 13.71 7.328 15.639 5.923 2.598 21.54 1.786 24.611.534 6.731-2.743 7.06-8.931 8.118-15.997.288-1.928-.137-3.621-1.16-5.066-.008-.052-.017-.105-.027-.158-.737-4.185-2.684-8.381-5.603-11.662-1.974-.205-5.788-3.372-6.712-4.925-2.03-.868-4.263-1.36-6.671-1.36-.08 0-.16-.0001-.24 0z" opacity=".744" fill="none" stroke="#fff"/><path d="m22.594 2.781c-2.33.117-4.441.725-6.344 1.688-1.01 1.99-4.355 4.373-5.719 4.625-2.682 3.2-4.403 7.199-5.063 11.06 0 .002 0 .029 0 .031-1.097 1.433-1.458 3.591-1.458 3.591 4.685 3.605 7.642.214 14.319-2.02 12.599 1.923 18.748-.996 22.514-5.668.007-.009-.003-.021 0-.031-.991-2.583-2.432-5.05-4.281-7.125-1.937-.201-5.687-3.289-6.594-4.813-1.991-.852-4.169-1.344-6.531-1.344-.079 0-.172-.0001-.25 0-.2.003-.396-.001-.594 0" opacity=".594" fill="url(#9)"/></svg>
